src/lib/packages/icons/src/assets/line/presentation-play.svg

<svg width="24" height="24" viewBox="0 0 24 24" fill="none" xmlns="http://www.w3.org/2000/svg">
<path d="M21 2.25H3C2.586 2.25 2.25 2.586 2.25 3C2.25 3.414 2.586 3.75 3 3.75H3.75V13C3.75 15.418 5.082 16.75 7.5 16.75H11.25V18.599L8.58401 20.376C8.23902 20.606 8.14601 21.071 8.37601 21.416C8.60501 21.761 9.07099 21.854 9.41599 21.624L12 19.901L14.584 21.624C14.712 21.709 14.856 21.75 15 21.75C15.242 21.75 15.48 21.633 15.625 21.416C15.855 21.071 15.762 20.606 15.417 20.376L12.751 18.599V16.75H16.501C18.919 16.75 20.251 15.418 20.251 13V3.75H21C21.414 3.75 21.75 3.414 21.75 3C21.75 2.586 21.414 2.25 21 2.25ZM18.75 13C18.75 14.577 18.077 15.25 16.5 15.25H7.5C5.923 15.25 5.25 14.577 5.25 13V3.75H18.75V13ZM9.61301 12.845C9.87001 12.989 10.155 13.061 10.44 13.061C10.747 13.061 11.053 12.978 11.324 12.812L14.472 10.885C14.959 10.588 15.249 10.07 15.249 9.5C15.249 8.93 14.958 8.41199 14.472 8.11499L11.323 6.18799C10.801 5.86799 10.145 5.85603 9.612 6.15503C9.071 6.45803 8.74899 7.00795 8.74899 7.62695V11.373C8.74999 11.992 9.07301 12.542 9.61301 12.845ZM10.25 7.62695C10.25 7.53695 10.302 7.48801 10.346 7.46301C10.371 7.44901 10.403 7.43701 10.441 7.43701C10.472 7.43701 10.505 7.44504 10.541 7.46704L13.69 9.39404C13.73 9.41804 13.75 9.454 13.75 9.5C13.75 9.546 13.73 9.58196 13.69 9.60596L10.541 11.533C10.462 11.582 10.392 11.562 10.346 11.537C10.302 11.512 10.25 11.464 10.25 11.373V7.62695Z" fill="currentColor"/>
</svg>

<svg xmlns="http://www.w3.org/2000/svg" width="24" height="24" fill="none"><path fill="currentColor" d="M21 2.25H3a.75.75 0 0 0 0 1.5h.75V13c0 2.418 1.332 3.75 3.75 3.75h3.75v1.849l-2.666 1.777a.75.75 0 1 0 .832 1.248L12 19.901l2.584 1.723a.748.748 0 0 0 1.041-.208.75.75 0 0 0-.208-1.04l-2.666-1.777V16.75h3.75c2.418 0 3.75-1.332 3.75-3.75V3.75H21a.75.75 0 0 0 0-1.5ZM18.75 13c0 1.577-.673 2.25-2.25 2.25h-9c-1.577 0-2.25-.673-2.25-2.25V3.75h13.5V13Zm-9.137-.155a1.69 1.69 0 0 0 1.711-.033l3.148-1.927a1.61 1.61 0 0 0 .777-1.385c0-.57-.291-1.088-.777-1.385l-3.149-1.927a1.693 1.693 0 0 0-1.711-.033 1.666 1.666 0 0 0-.863 1.472v3.746c.001.619.324 1.169.864 1.472Zm.637-5.218a.18.18 0 0 1 .096-.164.193.193 0 0 1 .095-.026c.031 0 .064.008.1.03l3.149 1.927c.04.024.06.06.06.106s-.02.082-.06.106l-3.149 1.927a.184.184 0 0 1-.195.004.18.18 0 0 1-.096-.164V7.627Z"/></svg>
